X:1
T:The Scarborough Settler's Lament
M:6/8
L:1/8
K:E
 B,| E2 E EEE| E2 B, E2 c| BBG F2 E| C3- C2B,/2-C/2| E2 E E2 E/2E/2|\
 E2 B, E2 c| B2 c e2 G| B3- B2 c| B2 c e2 E| B G2 F2 E| F2 GA/2-G/2 FE|\
 C3- C2B,/2-C/2| E2 E E2 E| E2 B, E2 c| B G2 F2 G| E3- E2||
